src/epub/images/titlepage.svg

<?xml version="1.0" encoding="utf-8"?>
<svg xmlns="http://www.w3.org/2000/svg" xmlns:svg="http://www.w3.org/2000/svg" version="1.1" viewBox="0 0 1400 440">
	<title>The titlepage for the Standard Ebooks edition of The Scarlet Pimpernel, by Baroness Orczy</title>
	<g>
		<path d="m 356.39546,68.245613 18.33918,0 0,61.754387 17.59065,0 0,-61.754387 18.33918,0 0,-15.438597 -54.26901,0 0,15.438597 z"/>
		<path d="m 439.58991,99.029239 24.88889,0 0,30.970761 17.59064,0 0,-77.192984 -17.59064,0 0,30.783626 -24.88889,0 0,-30.783626 -17.59065,0 0,77.192984 17.59065,0 0,-30.970761 z"/>
		<path d="m 542.43494,52.807016 -44.16374,0 0,77.192984 44.16374,0 0,-15.4386 -26.5731,0 0,-15.532161 25.45029,0 0,-15.438597 -25.45029,0 0,-15.345029 26.5731,0 0,-15.438597 z"/>
		<path d="m 614.74927,51.403507 c -12.44444,0 -25.16959,9.169591 -25.16959,23.578948 0,8.046784 5.4269,15.251462 14.69006,19.836258 9.16959,4.584795 17.40351,7.111107 17.40351,12.725147 0,7.20468 -7.29825,7.57895 -11.1345,7.57895 -8.60819,0 -18.90059,-8.70176 -18.90059,-8.70176 l -8.79532,14.78363 c 0,0 10.94737,10.19883 29.00585,10.19883 15.06433,0 29.09941,-6.45614 29.09941,-24.88889 0,-10.105264 -9.45029,-17.40351 -18.05848,-21.052632 -8.79532,-3.742691 -16.09356,-6.83041 -16.09356,-11.134504 0,-4.210526 3.18128,-6.923976 9.16959,-6.923976 7.95321,0 15.62573,5.333333 15.62573,5.333333 l 7.11111,-14.035088 c 0,0 -9.91813,-7.298246 -23.95322,-7.298246 z"/>
		<path d="m 692.32237,114.09357 c -17.68422,0 -25.4503,-12.35088 -25.4503,-22.736846 0,-10.292397 7.76608,-22.643275 25.4503,-22.643275 8.98245,0 15.15789,4.77193 15.15789,4.77193 l 7.48538,-14.97076 c 0,0 -8.60819,-7.111112 -25.35672,-7.111112 -21.89474,0 -41.82457,17.964913 -41.82457,40.140352 0,22.081871 20.0234,39.859651 41.82457,39.859651 16.74853,0 25.35672,-7.11111 25.35672,-7.11111 l -7.48538,-14.97076 c 0,0 -6.17544,4.77193 -15.15789,4.77193 z"/>
		<path d="m 765.99198,52.807016 -16.28071,0 L 718.55338,130 l 18.90058,0 5.70761,-15.4386 29.38011,0 5.70761,15.4386 18.90058,0 -31.15789,-77.192984 z m 0.5614,46.31579 -17.40351,0 8.60819,-22.45614 0.18713,0 8.60819,22.45614 z"/>
		<path d="m 805.06946,52.807016 0,77.192984 17.59065,0 0,-30.502925 L 846.23905,130 l 22.36258,0 -26.5731,-31.906433 c 9.45029,-2.994152 15.81286,-10.760234 15.81286,-22.362574 0,-15.157895 -10.8538,-22.923977 -25.16959,-22.923977 l -27.60234,0 z m 17.59065,34.245615 0,-20.210527 2.05847,0 c 6.64328,0 14.5965,0.467836 14.5965,10.105263 0,9.637428 -7.95322,10.105264 -14.5965,10.105264 l -2.05847,0 z"/>
		<path d="m 894.7288,52.807016 -17.59064,0 0,77.192984 44.16374,0 0,-15.4386 -26.5731,0 0,-61.754384 z"/>
		<path d="m 979.11623,52.807016 -44.16374,0 0,77.192984 44.16374,0 0,-15.4386 -26.5731,0 0,-15.532161 25.45029,0 0,-15.438597 -25.45029,0 0,-15.345029 26.5731,0 0,-15.438597 z"/>
		<path d="m 989.3633,68.245613 18.3392,0 0,61.754387 17.5906,0 0,-61.754387 18.3392,0 0,-15.438597 -54.269,0 0,15.438597 z"/>
	</g>
	<g>
		<path d="m 411.76535,152.80702 0,77.19298 17.59064,0 0,-28.63158 10.5731,0 c 15.06433,0 26.38596,-8.88889 26.38596,-24.79532 0,-16 -11.32163,-23.76608 -26.38596,-23.76608 l -28.16374,0 z m 17.59064,34.52631 0,-20.49123 4.95906,0 c 6.92398,0 13.47369,2.33919 13.47369,10.2924 0,7.85965 -6.54971,10.19883 -13.47369,10.19883 l -4.95906,0 z"/>
		<path d="m 496.67324,152.80702 -17.59064,0 0,77.19298 17.59064,0 0,-77.19298 z"/>
		<path d="m 576.76973,230 17.59065,0 -6.92398,-77.19298 -18.71345,0 -17.12281,44.53801 -17.1228,-44.53801 -18.71346,0 -6.92397,77.19298 17.59064,0 3.64912,-45.75439 0.46784,0 15.81287,45.28655 10.47953,0 15.81286,-45.28655 0.46784,0 L 576.76973,230 Z"/>
		<path d="m 606.40716,152.80702 0,77.19298 17.59064,0 0,-28.63158 10.5731,0 c 15.06433,0 26.38597,-8.88889 26.38597,-24.79532 0,-16 -11.32164,-23.76608 -26.38597,-23.76608 l -28.16374,0 z m 17.59064,34.52631 0,-20.49123 4.95907,0 c 6.92398,0 13.47368,2.33919 13.47368,10.2924 0,7.85965 -6.5497,10.19883 -13.47368,10.19883 l -4.95907,0 z"/>
		<path d="m 717.88817,152.80702 -44.16375,0 0,77.19298 44.16375,0 0,-15.4386 -26.5731,0 0,-15.53216 25.45029,0 0,-15.4386 -25.45029,0 0,-15.34503 26.5731,0 0,-15.43859 z"/>
		<path d="m 733.00073,152.80702 0,77.19298 17.59064,0 0,-30.50292 23.57895,30.50292 22.36257,0 -26.5731,-31.90643 c 9.4503,-2.99416 15.81287,-10.76024 15.81287,-22.36258 0,-15.15789 -10.8538,-22.92397 -25.16959,-22.92397 l -27.60234,0 z m 17.59064,34.24561 0,-20.21053 2.05848,0 c 6.64328,0 14.59649,0.46784 14.59649,10.10527 0,9.63742 -7.95321,10.10526 -14.59649,10.10526 l -2.05848,0 z"/>
		<path d="m 822.6601,182.09357 0.18713,0 30.69006,47.90643 17.59064,0 0,-77.19298 -17.59064,0 0,47.90643 -0.18713,0 -30.69006,-47.90643 -17.59065,0 0,77.19298 17.59065,0 0,-47.90643 z"/>
		<path d="m 931.53584,152.80702 -44.16374,0 0,77.19298 44.16374,0 0,-15.4386 -26.5731,0 0,-15.53216 25.45029,0 0,-15.4386 -25.45029,0 0,-15.34503 26.5731,0 0,-15.43859 z"/>
		<path d="m 964.23905,152.80702 -17.59065,0 0,77.19298 44.16375,0 0,-15.4386 -26.5731,0 0,-61.75438 z"/>
	</g>
	<g>
		<path d="m 328.16612,332.10526 0,57.89474 21.96491,0 c 12,0 18.94737,-6.59649 18.94737,-16.14035 0,-9.33333 -5.1228,-13.33333 -12.35088,-14.59649 4.91229,-2.52632 7.22808,-7.08772 7.22808,-12.42105 0,-11.01755 -7.85965,-14.73685 -17.82457,-14.73685 l -17.96491,0 z m 13.19298,22.66667 0,-12.49123 1.05264,0 c 5.75438,0 8.77193,1.75439 8.77193,5.89474 0,4.8421 -3.08772,6.59649 -8.77193,6.59649 l -1.05264,0 z m 0,25.05263 0,-13.68421 4.14035,0 c 6.24562,0 9.68422,1.89474 9.68422,7.22807 0,4.5614 -3.4386,6.45614 -9.68422,6.45614 l -4.14035,0 z"/>
		<path d="m 407.93695,332.10526 -12.21052,0 L 372.35801,390 l 14.17544,0 4.2807,-11.57895 22.03509,0 4.2807,11.57895 14.17544,0 -23.36843,-57.89474 z m 0.42106,34.73685 -13.05263,0 6.45614,-16.84211 0.14035,0 6.45614,16.84211 z"/>
		<path d="m 438.49507,332.10526 0,57.89474 13.19298,0 0,-22.87719 17.68421,22.87719 16.77193,0 -19.92982,-23.92982 c 7.08772,-2.24562 11.85965,-8.07018 11.85965,-16.77193 0,-11.36842 -8.14035,-17.19299 -18.8772,-17.19299 l -20.70175,0 z m 13.19298,25.68421 0,-15.15789 1.54386,0 c 4.98246,0 10.94737,0.35088 10.94737,7.57895 0,7.22807 -5.96491,7.57894 -10.94737,7.57894 l -1.54386,0 z"/>
		<path d="m 491.20011,361.01754 c 0,16.91228 12.07017,30.03509 29.19298,30.03509 16.63158,0 29.12281,-13.12281 29.12281,-30.03509 0,-16.91228 -13.05263,-29.96491 -29.12281,-29.96491 -15.92982,0 -29.19298,13.05263 -29.19298,29.96491 z m 14.24561,0 c 0,-8.63157 4.77193,-17.26315 14.94737,-17.26315 10.24561,0 14.87719,8.63158 14.87719,17.26315 0,8.63158 -4.35087,17.26316 -14.87719,17.26316 -10.80702,0 -14.94737,-8.63158 -14.94737,-17.26316 z"/>
		<path d="m 573.53016,354.07018 0.14035,0 23.01754,35.92982 13.19298,0 0,-57.89474 -13.19298,0 0,35.92983 -0.14035,0 -23.01754,-35.92983 -13.19299,0 0,57.89474 13.19299,0 0,-35.92982 z"/>
		<path d="m 656.43694,332.10526 -33.12281,0 0,57.89474 33.12281,0 0,-11.57895 -19.92983,0 0,-11.64912 19.08772,0 0,-11.57895 -19.08772,0 0,-11.50877 19.92983,0 0,-11.57895 z"/>
		<path d="m 690.35471,331.05263 c -9.33333,0 -18.87719,6.8772 -18.87719,17.68421 0,6.03509 4.07017,11.4386 11.01754,14.8772 6.87719,3.43859 13.05263,5.33333 13.05263,9.54385 0,5.40351 -5.47368,5.68422 -8.35087,5.68422 -6.45615,0 -14.17544,-6.52632 -14.17544,-6.52632 l -6.59649,11.08772 c 0,0 8.21052,7.64912 21.75438,7.64912 11.29825,0 21.82456,-4.8421 21.82456,-18.66666 0,-7.57895 -7.08772,-13.05264 -13.54386,-15.78948 -6.59649,-2.80702 -12.07017,-5.12281 -12.07017,-8.35088 0,-3.15789 2.38596,-5.19298 6.87719,-5.19298 5.96491,0 11.7193,4 11.7193,4 l 5.33333,-10.52631 c 0,0 -7.43859,-5.47369 -17.96491,-5.47369 z"/>
		<path d="m 741.13321,331.05263 c -9.33333,0 -18.87719,6.8772 -18.87719,17.68421 0,6.03509 4.07018,11.4386 11.01754,14.8772 6.8772,3.43859 13.05264,5.33333 13.05264,9.54385 0,5.40351 -5.47369,5.68422 -8.35088,5.68422 -6.45614,0 -14.17544,-6.52632 -14.17544,-6.52632 l -6.59649,11.08772 c 0,0 8.21053,7.64912 21.75438,7.64912 11.29825,0 21.82457,-4.8421 21.82457,-18.66666 0,-7.57895 -7.08772,-13.05264 -13.54386,-15.78948 -6.59649,-2.80702 -12.07018,-5.12281 -12.07018,-8.35088 0,-3.15789 2.38597,-5.19298 6.87719,-5.19298 5.96492,0 11.7193,4 11.7193,4 l 5.33334,-10.52631 c 0,0 -7.4386,-5.47369 -17.96492,-5.47369 z"/>
		<path d="m 793.54113,361.01754 c 0,16.91228 12.07017,30.03509 29.19298,30.03509 16.63158,0 29.12281,-13.12281 29.12281,-30.03509 0,-16.91228 -13.05264,-29.96491 -29.12281,-29.96491 -15.92983,0 -29.19298,13.05263 -29.19298,29.96491 z m 14.24561,0 c 0,-8.63157 4.77193,-17.26315 14.94737,-17.26315 10.24561,0 14.87719,8.63158 14.87719,17.26315 0,8.63158 -4.35088,17.26316 -14.87719,17.26316 -10.80702,0 -14.94737,-8.63158 -14.94737,-17.26316 z"/>
		<path d="m 862.67821,332.10526 0,57.89474 13.19298,0 0,-22.87719 L 893.5554,390 l 16.77193,0 -19.92983,-23.92982 c 7.08772,-2.24562 11.85965,-8.07018 11.85965,-16.77193 0,-11.36842 -8.14035,-17.19299 -18.87719,-17.19299 l -20.70175,0 z m 13.19298,25.68421 0,-15.15789 1.54386,0 c 4.98245,0 10.94737,0.35088 10.94737,7.57895 0,7.22807 -5.96492,7.57894 -10.94737,7.57894 l -1.54386,0 z"/>
		<path d="m 948.78674,378.07018 c -13.26316,0 -19.08772,-9.26316 -19.08772,-17.05264 0,-7.71929 5.82456,-16.98245 19.08772,-16.98245 6.73684,0 11.36842,3.57895 11.36842,3.57895 l 5.61403,-11.22807 c 0,0 -6.45614,-5.33334 -19.01754,-5.33334 -16.42105,0 -31.36842,13.47369 -31.36842,30.10527 0,16.5614 15.01754,29.89473 31.36842,29.89473 12.5614,0 19.01754,-5.33333 19.01754,-5.33333 l -5.61403,-11.22807 c 0,0 -4.63158,3.57895 -11.36842,3.57895 z"/>
		<path d="m 1024.517,332.10526 -47.64912,0 0,11.57895 24.56142,0 L 972.7977,390 l 49.8246,0 0,-11.57895 -26.80705,0 28.70175,-46.31579 z"/>
		<path d="m 1022.267,332.10526 21.3334,31.92983 0,25.96491 13.1929,0 0,-25.96491 21.3334,-31.92983 -15.8597,0 -12.0702,18.52632 -12.0701,-18.52632 -15.8597,0 z"/>
	</g>
</svg>

<?xml version="1.0" encoding="utf-8"?>
<svg xmlns="http://www.w3.org/2000/svg" xmlns:svg="http://www.w3.org/2000/svg" version="1.1" viewBox="0 0 1400 440">
	<title>The titlepage for the Standard Ebooks edition of The Scarlet Pimpernel, by Baroness Orczy</title>
	<g aria-label="THE SCARLET">
		<path d="m 356.39546,68.245613 h 18.33918 V 130 h 17.59065 V 68.245613 h 18.33918 V 52.807016 h -54.26901 z"/>
		<path d="M 439.58991,99.029239 H 464.4788 V 130 h 17.59064 V 52.807016 H 464.4788 V 83.590642 H 439.58991 V 52.807016 H 421.99926 V 130 h 17.59065 z"/>
		<path d="M 542.43494,52.807016 H 498.2712 V 130 h 44.16374 v -15.4386 h -26.5731 V 99.029239 h 25.45029 V 83.590642 H 515.86184 V 68.245613 h 26.5731 z"/>
		<path d="m 614.74927,51.403507 c -12.44444,0 -25.16959,9.169591 -25.16959,23.578948 0,8.046784 5.4269,15.251462 14.69006,19.836258 9.16959,4.584795 17.40351,7.111107 17.40351,12.725147 0,7.20468 -7.29825,7.57895 -11.1345,7.57895 -8.60819,0 -18.90059,-8.70176 -18.90059,-8.70176 l -8.79532,14.78363 c 0,0 10.94737,10.19883 29.00585,10.19883 15.06433,0 29.09941,-6.45614 29.09941,-24.88889 0,-10.105264 -9.45029,-17.40351 -18.05848,-21.052632 -8.79532,-3.742691 -16.09356,-6.83041 -16.09356,-11.134504 0,-4.210526 3.18128,-6.923976 9.16959,-6.923976 7.95321,0 15.62573,5.333333 15.62573,5.333333 l 7.11111,-14.035088 c 0,0 -9.91813,-7.298246 -23.95322,-7.298246 z"/>
		<path d="m 692.32237,114.09357 c -17.68422,0 -25.4503,-12.35088 -25.4503,-22.736846 0,-10.292397 7.76608,-22.643275 25.4503,-22.643275 8.98245,0 15.15789,4.77193 15.15789,4.77193 l 7.48538,-14.97076 c 0,0 -8.60819,-7.111112 -25.35672,-7.111112 -21.89474,0 -41.82457,17.964913 -41.82457,40.140352 0,22.081871 20.0234,39.859651 41.82457,39.859651 16.74853,0 25.35672,-7.11111 25.35672,-7.11111 l -7.48538,-14.97076 c 0,0 -6.17544,4.77193 -15.15789,4.77193 z"/>
		<path d="M 765.99198,52.807016 H 749.71127 L 718.55338,130 h 18.90058 l 5.70761,-15.4386 h 29.38011 L 778.24929,130 h 18.90058 z m 0.5614,46.31579 h -17.40351 l 8.60819,-22.45614 h 0.18713 z"/>
		<path d="M 805.06946,52.807016 V 130 h 17.59065 V 99.497075 L 846.23905,130 h 22.36258 l -26.5731,-31.906433 c 9.45029,-2.994152 15.81286,-10.760234 15.81286,-22.362574 0,-15.157895 -10.8538,-22.923977 -25.16959,-22.923977 z m 17.59065,34.245615 V 66.842104 h 2.05847 c 6.64328,0 14.5965,0.467836 14.5965,10.105263 0,9.637428 -7.95322,10.105264 -14.5965,10.105264 z"/>
		<path d="M 894.7288,52.807016 H 877.13816 V 130 h 44.16374 v -15.4386 h -26.5731 z"/>
		<path d="M 979.11623,52.807016 H 934.95249 V 130 h 44.16374 v -15.4386 h -26.5731 V 99.029239 h 25.45029 V 83.590642 H 952.54313 V 68.245613 h 26.5731 z"/>
		<path d="m 989.3633,68.245613 h 18.3392 V 130 h 17.5906 V 68.245613 h 18.3392 V 52.807016 h -54.269 z"/>
	</g>
	<g aria-label="PIMPERNEL">
		<path d="M 411.76535,152.80702 V 230 h 17.59064 v -28.63158 h 10.5731 c 15.06433,0 26.38596,-8.88889 26.38596,-24.79532 0,-16 -11.32163,-23.76608 -26.38596,-23.76608 z m 17.59064,34.52631 V 166.8421 h 4.95906 c 6.92398,0 13.47369,2.33919 13.47369,10.2924 0,7.85965 -6.54971,10.19883 -13.47369,10.19883 z"/>
		<path d="M 496.67324,152.80702 H 479.0826 V 230 h 17.59064 z"/>
		<path d="m 576.76973,230 h 17.59065 l -6.92398,-77.19298 h -18.71345 l -17.12281,44.53801 -17.1228,-44.53801 H 515.76388 L 508.83991,230 h 17.59064 l 3.64912,-45.75439 h 0.46784 l 15.81287,45.28655 h 10.47953 l 15.81286,-45.28655 h 0.46784 z"/>
		<path d="M 606.40716,152.80702 V 230 h 17.59064 v -28.63158 h 10.5731 c 15.06433,0 26.38597,-8.88889 26.38597,-24.79532 0,-16 -11.32164,-23.76608 -26.38597,-23.76608 z m 17.59064,34.52631 V 166.8421 h 4.95907 c 6.92398,0 13.47368,2.33919 13.47368,10.2924 0,7.85965 -6.5497,10.19883 -13.47368,10.19883 z"/>
		<path d="M 717.88817,152.80702 H 673.72442 V 230 h 44.16375 v -15.4386 h -26.5731 v -15.53216 h 25.45029 v -15.4386 h -25.45029 v -15.34503 h 26.5731 z"/>
		<path d="M 733.00073,152.80702 V 230 h 17.59064 V 199.49708 L 774.17032,230 h 22.36257 l -26.5731,-31.90643 c 9.4503,-2.99416 15.81287,-10.76024 15.81287,-22.36258 0,-15.15789 -10.8538,-22.92397 -25.16959,-22.92397 z m 17.59064,34.24561 V 166.8421 h 2.05848 c 6.64328,0 14.59649,0.46784 14.59649,10.10527 0,9.63742 -7.95321,10.10526 -14.59649,10.10526 z"/>
		<path d="m 822.6601,182.09357 h 0.18713 L 853.53729,230 h 17.59064 v -77.19298 h -17.59064 v 47.90643 h -0.18713 L 822.6601,152.80702 H 805.06945 V 230 h 17.59065 z"/>
		<path d="M 931.53584,152.80702 H 887.3721 V 230 h 44.16374 v -15.4386 h -26.5731 v -15.53216 h 25.45029 v -15.4386 h -25.45029 v -15.34503 h 26.5731 z"/>
		<path d="M 964.23905,152.80702 H 946.6484 V 230 h 44.16375 v -15.4386 h -26.5731 z"/>
	</g>
	<g aria-label="BARONESS ORCZY">
		<path d="M 328.16612,332.10526 V 390 h 21.96491 c 12,0 18.94737,-6.59649 18.94737,-16.14035 0,-9.33333 -5.1228,-13.33333 -12.35088,-14.59649 4.91229,-2.52632 7.22808,-7.08772 7.22808,-12.42105 0,-11.01755 -7.85965,-14.73685 -17.82457,-14.73685 z m 13.19298,22.66667 V 342.2807 h 1.05264 c 5.75438,0 8.77193,1.75439 8.77193,5.89474 0,4.8421 -3.08772,6.59649 -8.77193,6.59649 z m 0,25.05263 v -13.68421 h 4.14035 c 6.24562,0 9.68422,1.89474 9.68422,7.22807 0,4.5614 -3.4386,6.45614 -9.68422,6.45614 z"/>
		<path d="M 407.93695,332.10526 H 395.72643 L 372.35801,390 h 14.17544 l 4.2807,-11.57895 h 22.03509 L 417.12994,390 h 14.17544 z m 0.42106,34.73685 H 395.30538 L 401.76152,350 h 0.14035 z"/>
		<path d="M 438.49507,332.10526 V 390 h 13.19298 V 367.12281 L 469.37226,390 h 16.77193 l -19.92982,-23.92982 c 7.08772,-2.24562 11.85965,-8.07018 11.85965,-16.77193 0,-11.36842 -8.14035,-17.19299 -18.8772,-17.19299 z m 13.19298,25.68421 v -15.15789 h 1.54386 c 4.98246,0 10.94737,0.35088 10.94737,7.57895 0,7.22807 -5.96491,7.57894 -10.94737,7.57894 z"/>
		<path d="m 491.20011,361.01754 c 0,16.91228 12.07017,30.03509 29.19298,30.03509 16.63158,0 29.12281,-13.12281 29.12281,-30.03509 0,-16.91228 -13.05263,-29.96491 -29.12281,-29.96491 -15.92982,0 -29.19298,13.05263 -29.19298,29.96491 z m 14.24561,0 c 0,-8.63157 4.77193,-17.26315 14.94737,-17.26315 10.24561,0 14.87719,8.63158 14.87719,17.26315 0,8.63158 -4.35087,17.26316 -14.87719,17.26316 -10.80702,0 -14.94737,-8.63158 -14.94737,-17.26316 z"/>
		<path d="m 573.53016,354.07018 h 0.14035 L 596.68805,390 h 13.19298 v -57.89474 h -13.19298 v 35.92983 H 596.5477 L 573.53016,332.10526 H 560.33717 V 390 h 13.19299 z"/>
		<path d="M 656.43694,332.10526 H 623.31413 V 390 h 33.12281 v -11.57895 h -19.92983 v -11.64912 h 19.08772 v -11.57895 h -19.08772 v -11.50877 h 19.92983 z"/>
		<path d="m 690.35471,331.05263 c -9.33333,0 -18.87719,6.8772 -18.87719,17.68421 0,6.03509 4.07017,11.4386 11.01754,14.8772 6.87719,3.43859 13.05263,5.33333 13.05263,9.54385 0,5.40351 -5.47368,5.68422 -8.35087,5.68422 -6.45615,0 -14.17544,-6.52632 -14.17544,-6.52632 l -6.59649,11.08772 c 0,0 8.21052,7.64912 21.75438,7.64912 11.29825,0 21.82456,-4.8421 21.82456,-18.66666 0,-7.57895 -7.08772,-13.05264 -13.54386,-15.78948 -6.59649,-2.80702 -12.07017,-5.12281 -12.07017,-8.35088 0,-3.15789 2.38596,-5.19298 6.87719,-5.19298 5.96491,0 11.7193,4 11.7193,4 l 5.33333,-10.52631 c 0,0 -7.43859,-5.47369 -17.96491,-5.47369 z"/>
		<path d="m 741.13321,331.05263 c -9.33333,0 -18.87719,6.8772 -18.87719,17.68421 0,6.03509 4.07018,11.4386 11.01754,14.8772 6.8772,3.43859 13.05264,5.33333 13.05264,9.54385 0,5.40351 -5.47369,5.68422 -8.35088,5.68422 -6.45614,0 -14.17544,-6.52632 -14.17544,-6.52632 l -6.59649,11.08772 c 0,0 8.21053,7.64912 21.75438,7.64912 11.29825,0 21.82457,-4.8421 21.82457,-18.66666 0,-7.57895 -7.08772,-13.05264 -13.54386,-15.78948 -6.59649,-2.80702 -12.07018,-5.12281 -12.07018,-8.35088 0,-3.15789 2.38597,-5.19298 6.87719,-5.19298 5.96492,0 11.7193,4 11.7193,4 l 5.33334,-10.52631 c 0,0 -7.4386,-5.47369 -17.96492,-5.47369 z"/>
		<path d="m 793.54113,361.01754 c 0,16.91228 12.07017,30.03509 29.19298,30.03509 16.63158,0 29.12281,-13.12281 29.12281,-30.03509 0,-16.91228 -13.05264,-29.96491 -29.12281,-29.96491 -15.92983,0 -29.19298,13.05263 -29.19298,29.96491 z m 14.24561,0 c 0,-8.63157 4.77193,-17.26315 14.94737,-17.26315 10.24561,0 14.87719,8.63158 14.87719,17.26315 0,8.63158 -4.35088,17.26316 -14.87719,17.26316 -10.80702,0 -14.94737,-8.63158 -14.94737,-17.26316 z"/>
		<path d="M 862.67821,332.10526 V 390 h 13.19298 V 367.12281 L 893.5554,390 h 16.77193 L 890.3975,366.07018 c 7.08772,-2.24562 11.85965,-8.07018 11.85965,-16.77193 0,-11.36842 -8.14035,-17.19299 -18.87719,-17.19299 z m 13.19298,25.68421 v -15.15789 h 1.54386 c 4.98245,0 10.94737,0.35088 10.94737,7.57895 0,7.22807 -5.96492,7.57894 -10.94737,7.57894 z"/>
		<path d="m 948.78674,378.07018 c -13.26316,0 -19.08772,-9.26316 -19.08772,-17.05264 0,-7.71929 5.82456,-16.98245 19.08772,-16.98245 6.73684,0 11.36842,3.57895 11.36842,3.57895 l 5.61403,-11.22807 c 0,0 -6.45614,-5.33334 -19.01754,-5.33334 -16.42105,0 -31.36842,13.47369 -31.36842,30.10527 0,16.5614 15.01754,29.89473 31.36842,29.89473 12.5614,0 19.01754,-5.33333 19.01754,-5.33333 l -5.61403,-11.22807 c 0,0 -4.63158,3.57895 -11.36842,3.57895 z"/>
		<path d="m 1024.517,332.10526 h -47.64912 v 11.57895 h 24.56142 L 972.7977,390 h 49.8246 v -11.57895 h -26.80705 z"/>
		<path d="m 1022.267,332.10526 21.3334,31.92983 V 390 h 13.1929 v -25.96491 l 21.3334,-31.92983 h -15.8597 l -12.0702,18.52632 -12.0701,-18.52632 z"/>
	</g>
</svg>
